Frontend/src/assets/svg/zm.svg

<?xml version="1.0" encoding="UTF-8"?>
<svg xmlns="http://www.w3.org/2000/svg" xmlns:xlink="http://www.w3.org/1999/xlink" width="1000px" height="667px" viewBox="0 0 1000 667" version="1.1">
<g id="surface1">
<rect x="0" y="0" width="1000" height="667" style="fill:rgb(9.803922%,54.11765%,0%);fill-opacity:1;stroke:none;"/>
<path style=" stroke:none;fill-rule:nonzero;fill:rgb(87.058824%,12.54902%,6.27451%);fill-opacity:1;" d="M 642.855469 238.214844 L 880.953125 238.214844 L 880.953125 667 L 642.855469 667 Z M 642.855469 238.214844 "/>
<path style=" stroke:none;fill-rule:nonzero;fill:rgb(93.725491%,49.019608%,0%);fill-opacity:1;" d="M 761.90625 238.214844 L 1000 238.214844 L 1000 667 L 761.90625 667 Z M 761.90625 238.214844 "/>
<path style=" stroke:none;fill-rule:nonzero;fill:rgb(0%,0%,0%);fill-opacity:1;" d="M 761.90625 238.214844 L 880.953125 238.214844 L 880.953125 667 L 761.90625 667 Z M 761.90625 238.214844 "/>
<path style="fill-rule:nonzero;fill:rgb(93.725491%,49.019608%,0%);fill-opacity:1;stroke-width:2.25;stroke-linecap:round;stroke-linejoin:round;stroke:rgb(0%,0%,0%);stroke-opacity:1;stroke-miterlimit:4;" d="M 1916.422266 168.334192 C 1916.422266 168.334192 2002.423828 134.627999 2010.758203 127.675225 C 2014.548047 131.848529 1976.280469 174.24569 1902.025781 189.881231 C 1969.463672 175.286966 2027.049609 129.413418 2038.796484 130.807253 C 2042.208984 131.50417 2041.446094 175.631325 1886.874609 213.855182 C 1993.712109 188.143038 2055.842578 140.883855 2055.087891 146.098435 C 2055.842578 147.139711 2044.48125 183.272817 1950.9 211.420071 C 1977.043359 205.861132 2047.885547 166.25164 2047.130859 173.893132 C 2049.403125 177.025159 1978.560938 260.417448 1850.501953 233.311469 C 1952.794922 257.637978 2019.092578 198.916557 2028.567188 199.957834 C 2030.462109 200.302193 2009.617969 251.382121 1880.8125 254.514149 C 1942.565625 248.602652 1924.756641 254.161591 1924.756641 254.161591 C 1924.756641 254.161591 1888.392188 280.226293 1844.439844 262.5 C 1878.917578 271.190967 1882.707422 271.535326 1883.462109 274.314796 C 1881.189844 277.791183 1852.774219 283.005763 1825.498828 269.452774 C 1847.475 277.791183 1867.170703 279.185017 1867.548047 282.308846 C 1867.170703 283.350122 1853.159766 290.647254 1840.65 285.440873 C 1828.148438 280.226293 1712.976562 215.249016 1712.976562 215.249016 L 1909.228125 165.899082 Z M 1685.709375 344.104901 C 1668.458203 344.104901 1667.982422 358.190826 1667.982422 358.190826 C 1667.982422 358.190826 1666.555078 359.207506 1667.506641 366.037294 C 1670.353125 361.388446 1671.780469 359.937219 1671.780469 359.937219 C 1673.683594 360.224185 1681.599609 362.405126 1694.101172 353.402596 C 1682.707031 364.290901 1689.515625 368.357618 1689.515625 368.357618 C 1689.515625 368.357618 1686.825 376.9256 1695.528516 378.663793 C 1692.837891 375.179207 1694.421094 372.12917 1694.421094 372.12917 C 1694.421094 372.12917 1706.610938 370.973107 1705.823438 357.32173 C 1706.299219 369.661263 1713.575391 372.711301 1713.575391 372.711301 C 1713.575391 372.711301 1713.575391 379.541089 1721.491406 380.115021 C 1717.217578 376.630435 1718.169141 371.260073 1718.169141 371.260073 C 1718.169141 371.260073 1728.464063 364.438484 1719.752344 352.820465 C 1724.977734 350.057393 1729.251563 342.358508 1729.251563 342.358508 C 1729.251563 342.358508 1722.13125 339.603636 1718.800781 337.283311 C 1717.217578 334.225075 1718.644922 317.531859 1718.644922 317.531859 L 1714.371094 295.894631 L 1702.18125 329.584427 C 1702.648828 324.787997 1702.96875 344.104901 1685.709375 344.104901 Z M 1685.709375 344.104901 " transform="matrix(0.47619,0,0,0.476429,0,0)"/>
<path style="fill-rule:nonzero;fill:rgb(93.725491%,49.019608%,0%);fill-opacity:1;stroke-width:2.25;stroke-linecap:round;stroke-linejoin:round;stroke:rgb(0%,0%,0%);stroke-opacity:1;stroke-miterlimit:4;" d="M 1770.948047 295.517476 C 1771.325391 295.861835 1783.826953 308.717907 1795.951172 308.02099 C 1800.495703 304.552802 1786.476562 296.903111 1786.476562 295.164918 C 1791.398438 299.338222 1812.234375 315.67068 1825.498828 309.759183 C 1830.798047 302.814608 1816.024219 303.855885 1799.732813 285.088315 C 1811.102344 292.041089 1839.517969 307.332271 1852.774219 301.420774 C 1858.458984 295.861835 1823.226562 278.4881 1811.479688 264.935111 L 1781.169141 250.685204 L 1739.874609 281.611928 Z M 1724.346094 189.881231 C 1724.346094 189.881231 1738.365234 182.23154 1794.433594 186.052286 C 1800.495703 186.749204 1832.692969 175.975684 1842.930469 172.851855 C 1859.213672 170.072386 1911.123047 159.643225 1925.142188 149.919181 C 1934.985938 148.877905 1922.484375 166.595999 1909.982813 170.769303 C 1896.726562 176.328242 1848.607031 191.619425 1831.560938 189.528673 C 1852.019531 189.881231 1840.65 205.164215 1806.557813 197.867082 C 1822.849219 206.21369 1816.787109 207.599325 1816.787109 207.599325 C 1816.787109 207.599325 1787.994141 208.99316 1780.414453 203.081662 C 1799.741016 209.681878 1791.783984 212.116988 1791.783984 212.116988 C 1791.783984 212.116988 1772.080078 213.855182 1762.991016 210.034436 C 1777.001953 213.855182 1769.807813 216.290292 1769.807813 216.290292 C 1769.807813 216.290292 1758.438281 218.028486 1748.971875 214.896458 C 1739.497266 211.772629 1725.100781 189.881231 1724.346094 189.881231 Z M 1746.830859 302.71622 L 1748.889844 336.701181 C 1748.889844 336.701181 1747.774219 338.439374 1746.830859 339.456053 C 1745.879297 340.472732 1720.548047 335.823885 1724.026172 353.541979 C 1724.026172 360.806316 1724.190234 362.692091 1729.571484 366.758808 C 1728.144141 361.962378 1728.619922 358.625375 1728.619922 358.625375 C 1728.619922 358.625375 1735.740234 362.544509 1742.712891 351.803786 C 1737.963281 362.405126 1741.285547 366.176677 1742.392969 366.471842 C 1743.500391 368.357618 1740.498047 376.9256 1749.997266 376.778017 C 1746.355078 373.580397 1748.094141 368.939749 1748.094141 368.939749 C 1748.094141 368.939749 1758.069141 367.488521 1754.582813 350.92649 C 1758.225 347.589487 1759.652344 350.787106 1759.652344 350.787106 C 1759.652344 350.787106 1760.759766 360.658733 1769.471484 358.625375 C 1773.425391 360.658733 1768.839844 366.029095 1768.839844 366.029095 C 1768.839844 366.029095 1775.164453 366.176677 1777.067578 361.240864 C 1778.970703 356.305051 1781.185547 347.441904 1770.734766 343.817935 C 1769.471484 340.333349 1774.852734 340.038184 1774.852734 340.038184 C 1774.852734 340.038184 1781.505469 342.071542 1783.400391 345.12158 C 1785.303516 348.171617 1784.671875 337.135729 1776.435938 335.971467 C 1766.305078 335.684501 1765.665234 333.790527 1765.665234 333.355978 C 1765.665234 332.92143 1763.926172 308.668713 1763.138672 301.699541 Z M 1746.830859 302.71622 " transform="matrix(0.47619,0,0,0.476429,0,0)"/>
<path style="fill-rule:nonzero;fill:rgb(93.725491%,49.019608%,0%);fill-opacity:1;stroke-width:2.25;stroke-linecap:round;stroke-linejoin:round;stroke:rgb(0%,0%,0%);stroke-opacity:1;stroke-miterlimit:4;" d="M 1782.071484 331.675178 C 1782.194531 330.117363 1764.779297 308.619518 1769.200781 305.840049 C 1773.614063 306.66815 1780.857422 316.449588 1786.722656 313.276565 C 1784.942578 309.464018 1779.700781 311.612163 1773.753516 301.855322 C 1767.80625 290.819434 1766.936719 274.257403 1746.100781 256.194949 C 1759.586719 275.306878 1790.192578 286.514946 1791.488672 280.939608 C 1792.784766 275.364271 1764.541406 254.292775 1765.985156 249.20938 C 1771.604297 259.63854 1799.9625 282.890976 1820.855859 280.964205 C 1822.283203 276.487537 1803.744141 267.452211 1798.969922 259.023613 C 1785.623438 250.799991 1749.907031 222.554348 1749.193359 216.011525 C 1736.191406 198.621392 1728.078516 193.365817 1724.305078 191.357056 C 1722.844922 189.782843 1722.475781 188.274222 1722.188672 187.314936 C 1714.125 169.86741 1724.813672 164.201883 1731.064453 163.365583 C 1736.216016 162.840845 1737.708984 163.545961 1741.408594 161.906156 C 1737.028125 160.331943 1732.639453 158.856119 1728.258984 157.281906 C 1733.976562 161.127249 1748.578125 157.741051 1745.411719 168.826134 C 1751.818359 166.5878 1765.44375 151.722967 1729.973438 148.361366 C 1718.423438 136.218609 1670.960156 129.23304 1659.082031 182.256138 C 1660.033594 182.99405 1660.525781 183.608977 1663.544531 185.675131 C 1648.557422 179.009323 1608.124219 173.876734 1593.555469 171.712191 C 1554.188672 161.299428 1513.3125 136.194012 1509.383203 139.285045 C 1504.125 141.424991 1533.164062 166.202446 1531.654688 166.75178 C 1506.471094 153.280781 1483.469531 143.745315 1462.067578 135.062547 C 1447.014844 129.897161 1431.929297 117.877389 1430.264063 120.164918 C 1424.726953 130.692466 1454.405859 157.158921 1459.926563 160.27455 C 1465.455469 163.250796 1508.874609 181.7314 1508.234766 181.960973 C 1442.83125 154.732009 1431.863672 149.796196 1428.582422 146.655969 C 1422.815625 145.46711 1408.771875 128.076977 1404.858984 129.192045 C 1402.717969 131.118816 1407.016406 158.601949 1438.229297 170.933283 C 1443.315234 174.335879 1505.125781 194.677661 1504.51875 196.268272 C 1504.371094 196.670024 1433.725781 169.523051 1430.977734 168.555566 C 1417.360547 163.652549 1400.642578 146.483789 1397.517188 148.418759 C 1394.539453 150.165152 1405.228125 168.752343 1418.984766 174.58185 C 1426.203516 177.500703 1453.872656 190.078008 1478.810156 198.072058 C 1480.401562 198.604994 1433.988281 181.936376 1411.683984 173.384792 C 1401.561328 168.235804 1396.803516 161.815967 1395.261328 163.193403 C 1392.980859 164.579039 1398.944531 192.029376 1470.639844 207.525534 C 1472.526562 208.263446 1495.880859 202.450337 1494.724219 203.221046 C 1494.437109 203.417822 1471.533984 207.98468 1469.310938 207.828898 C 1467.325781 207.550131 1454.783203 209.189936 1454.553516 209.788465 C 1453.798828 211.649644 1459.098047 221.480275 1496.11875 219.430519 C 1500.851953 219.16815 1526.535938 210.846139 1524.378516 212.641726 C 1523.295703 213.53542 1489.400391 223.636619 1486.824609 223.833396 C 1484.576953 224.128561 1472.674219 225.268225 1472.23125 226.432487 C 1471.698047 228.014899 1481.049609 235.008668 1500.925781 236.131934 C 1518.529688 236.984633 1551.973828 226.268506 1551.301172 226.957225 C 1550.636719 227.654142 1519.062891 237.574963 1518.234375 238.18169 C 1517.094141 238.780219 1505.527734 239.354151 1505.125781 240.165855 C 1504.182422 242.191014 1521.802734 257.301818 1573.908984 241.174335 C 1568.675391 247.659764 1543.417969 252.095437 1543.450781 253.267897 C 1543.335938 254.112397 1549.020703 259.146599 1557.847266 260.950384 C 1562.26875 261.852277 1568.30625 261.663699 1573.835156 260.868394 C 1583.752734 259.04821 1594.203516 255.448838 1607.484375 244.191576 C 1609.067578 247.725356 1574.310938 263.861038 1575.943359 265.394256 C 1583.473828 271.805894 1608.517969 264.566154 1610.158594 263.729854 C 1611.799219 262.885354 1658.368359 238.796617 1658.2125 236.008949 C 1658.934375 239.583724 1598.165625 269.870924 1598.821875 271.108977 C 1602.718359 276.823698 1623.480469 270.813812 1624.473047 270.289074 C 1625.465625 269.764337 1650.969141 257.129638 1651.666406 256.752483 C 1652.363672 256.383527 1621.692188 273.216126 1624.423828 275.782421 C 1623.103125 286.711722 1672.321875 268.239318 1676.177344 265.935392 C 1678.105078 264.787528 1652.535938 276.249766 1652.470313 281.693919 C 1660.70625 294.468 1687.071094 290.409483 1691.139844 287.605416 C 1693.174219 286.195184 1688.744531 297.091689 1690.171875 296.099606 C 1690.664062 295.894631 1695.905859 290.212706 1697.923828 286.104994 C 1697.275781 289.67157 1694.388281 295.287903 1692.698438 301.740536 C 1691.008594 308.193169 1690.524609 315.465705 1688.211328 323.197386 C 1687.678125 326.591782 1704.461719 316.556175 1702.017188 292.565826 C 1703.460938 305.044743 1696.717969 328.37917 1698.481641 329.592626 C 1702.008984 332.019537 1711.754297 317.974606 1712.738672 308.471936 C 1715.634375 313.268366 1721.704688 323.287575 1726.930078 325.591501 C 1726.364063 318.335364 1727.036719 318.663325 1724.682422 311.530172 C 1726.035938 302.060298 1726.224609 288.950056 1726.552734 274.150815 C 1740.752344 299.10045 1746.420703 309.636198 1742.450391 328.739927 C 1746.675 330.355135 1753.417969 315.408311 1752.868359 307.709427 C 1758.290625 329.092485 1781.694141 332.298304 1782.071484 331.675178 Z M 1782.071484 331.675178 " transform="matrix(0.47619,0,0,0.476429,0,0)"/>
<path style="fill-rule:nonzero;fill:rgb(93.725491%,49.019608%,0%);fill-opacity:1;stroke-width:2.25;stroke-linecap:round;stroke-linejoin:round;stroke:rgb(0%,0%,0%);stroke-opacity:1;stroke-miterlimit:4;" d="M 1545.575391 173.286404 C 1545.575391 173.286404 1535.912109 179.985007 1523.886328 179.591454 C 1526.888672 190.619144 1551.801563 182.14955 1551.801563 182.14955 C 1551.801563 182.14955 1539.775781 194.366098 1531.187109 196.333864 C 1536.338672 200.277596 1558.027734 198.89196 1561.686328 196.924194 C 1565.336719 194.956428 1571.776172 187.273941 1571.776172 187.273941 C 1571.776172 187.273941 1549.439063 210.911732 1546.215234 210.714955 C 1545.788672 213.469828 1569.626953 212.485945 1574.565234 208.353636 C 1579.503516 204.213128 1591.964062 198.104854 1591.964062 198.104854 C 1591.964062 198.104854 1559.323828 218.987772 1557.814453 218.987772 C 1570.053516 221.939421 1594.539844 215.437594 1610.216016 206.574447 C 1587.025781 220.758761 1584.876563 223.316857 1573.064063 228.047695 C 1583.588672 230.212238 1588.953516 236.714065 1624.604297 222.529751 C 1645.013672 213.666604 1656.604688 197.514524 1656.604688 197.514524 C 1643.939063 213.076274 1623.964453 226.276705 1601.840625 239.272161 C 1600.552734 241.641679 1625.465625 251.291932 1657.252734 220.955538 M 1718.242969 239.075384 C 1718.242969 239.075384 1720.392188 248.332084 1728.980859 255.424241 C 1737.569531 262.516398 1738.217578 269.411778 1738.217578 269.411778 M 1713.944531 178.804348 C 1713.944531 178.804348 1716.955078 187.077165 1725.757031 192.398332 C 1734.780469 197.711301 1748.307422 214.453711 1749.382031 217.413559 C 1750.423828 220.988334 1755.608203 246.757871 1755.181641 249.520943 " transform="matrix(0.47619,0,0,0.476429,0,0)"/>
<path style="fill-rule:nonzero;fill:rgb(93.725491%,49.019608%,0%);fill-opacity:1;stroke-width:2.25;stroke-linecap:round;stroke-linejoin:round;stroke:rgb(0%,0%,0%);stroke-opacity:1;stroke-miterlimit:4;" d="M 1659.180469 191.603027 C 1659.828516 194.759651 1646.514844 210.714955 1664.766797 229.425131 C 1648.229297 247.938531 1648.229297 250.308049 1648.229297 250.308049 C 1648.229297 250.308049 1657.466016 255.030688 1674.003516 242.035232 C 1701.278906 272.76518 1692.189844 286.826509 1692.189844 286.826509 " transform="matrix(0.47619,0,0,0.476429,0,0)"/>
<path style="fill-rule:nonzero;fill:rgb(93.725491%,49.019608%,0%);fill-opacity:1;stroke-width:2.25;stroke-linecap:round;stroke-linejoin:round;stroke:rgb(0%,0%,0%);stroke-opacity:1;stroke-miterlimit:4;" d="M 1690.016016 265.131887 C 1690.016016 265.131887 1687.505859 261.82768 1691.984766 249.504545 C 1696.0125 253.956615 1700.499609 254.907702 1702.468359 256.711488 C 1704.428906 258.515274 1725.026953 261.253748 1726.33125 273.872048 M 1714.223438 149.435439 C 1714.223438 148.508949 1710.072656 140.342719 1694.609766 150.542307 C 1702.894922 151.009651 1711.089844 155.363334 1714.223438 149.435439 Z M 1861.871484 186.749204 C 1862.626172 187.101762 1908.087891 196.137088 1923.247266 191.619425 C 1903.920703 215.249016 1865.275781 199.260916 1865.275781 199.260916 C 1884.225 204.475497 1884.979688 204.122939 1891.041797 208.99316 C 1892.936719 213.510823 1856.186719 211.420071 1844.0625 205.164215 C 1877.777344 214.896458 1878.540234 214.199541 1879.672266 218.028486 C 1881.189844 223.234867 1824.358594 216.634651 1819.436719 209.681878 C 1834.596094 220.455397 1842.930469 222.53795 1851.264844 227.408171 C 1841.027344 231.573276 1822.086328 235.74658 1787.23125 213.158265 C 1833.070312 251.382121 1874.373047 248.947011 1880.8125 255.899784 C 1864.898438 277.446823 1803.145313 243.043713 1774.729688 225.669978 C 1746.314063 208.296243 1836.860156 267.71458 1845.202734 266.673304 C 1841.027344 272.576602 1811.102344 267.370221 1809.207422 264.590751 M 1873.610156 226.711254 C 1868.310938 227.408171 1852.396875 227.408171 1850.124609 227.063812 M 1532.261719 166.981353 C 1532.261719 166.981353 1566.837891 183.723763 1581.439453 182.543103 C 1577.575781 185.896505 1571.776172 187.273941 1571.776172 187.273941 C 1575.426563 188.651377 1585.516406 193.578992 1600.766016 190.422367 C 1597.115625 193.775768 1592.390625 197.514524 1592.390625 197.514524 C 1592.390625 197.514524 1605.491016 202.048585 1620.314063 194.956428 C 1615.802344 200.07262 1613.226562 203.819575 1613.226562 203.819575 L 1623.529688 204.409904 " transform="matrix(0.47619,0,0,0.476429,0,0)"/>
</g>
</svg>

<svg xmlns="http://www.w3.org/2000/svg" viewBox="0 0 2100 1400"><path fill="#198a00" d="M0 0h2100v1400H0z"/><path fill="#de2010" d="M1350 500h500v900h-500z"/><path fill="#ef7d00" d="M1600 500h500v900h-500z"/><path d="M1600 500h250v900h-250z"/><g fill="#ef7d00" stroke="#000" stroke-width="2.25" stroke-linecap="round" stroke-linejoin="round"><path d="M1916.425 168.334s86.002-33.706 94.334-40.656c3.79 4.17-34.476 46.564-108.731 62.2 67.435-14.594 125.023-60.462 136.768-59.072 3.41.695 2.65 44.826-151.923 83.05 106.837-25.715 168.97-72.973 168.213-67.76.757 1.042-10.608 37.18-104.185 65.327 26.141-5.56 96.987-45.174 96.23-37.529 2.272 3.128-68.574 86.524-196.627 59.421 102.292 24.324 168.59-34.402 178.062-33.36 1.895.348-18.944 51.429-147.753 54.556 61.755-5.907 43.946-.348 43.946-.348s-36.37 26.061-80.317 8.341c34.476 8.688 38.264 9.034 39.021 11.814-2.272 3.474-30.687 8.687-57.964-4.866 21.973 8.34 41.674 9.73 42.052 12.858-.378 1.042-14.395 8.34-26.897 3.128-12.502-5.214-127.676-70.193-127.676-70.193l196.249-49.343zm-230.712 175.771c-17.257 0-17.734 14.085-17.734 14.085s-1.424 1.017-.474 7.844c2.85-4.649 4.275-6.1 4.275-6.1 1.9.29 9.816 2.468 22.324-6.535-11.4 10.89-4.59 14.957-4.59 14.957s-2.692 8.568 6.014 10.311c-2.69-3.486-1.107-6.535-1.107-6.535s12.19-1.161 11.4-14.811c.475 12.341 7.758 15.391 7.758 15.391s0 6.825 7.915 7.407c-4.273-3.486-3.325-8.859-3.325-8.859s10.292-6.825 1.584-18.443c5.225-2.76 9.5-10.455 9.5-10.455s-7.124-2.76-10.449-5.082c-1.585-3.051-.158-19.75-.158-19.75l-4.276-21.639-12.192 33.693c.474-4.793.792 14.521-16.465 14.521z"/><path d="M1770.944 295.514c.378.348 12.882 13.206 25.004 12.51 4.545-3.474-9.472-11.119-9.472-12.857 4.925 4.17 25.762 20.501 39.023 14.594 5.303-6.95-9.472-5.906-25.763-24.671 11.365 6.95 39.78 22.239 53.04 16.332 5.685-5.56-29.551-22.936-41.296-36.487l-30.307-14.246-41.296 30.927zm-46.599-105.635s14.017-7.645 70.088-3.823c6.062.695 38.264-10.077 48.494-13.204 16.29-2.78 68.193-13.205 82.212-22.935 9.85-1.042-2.654 16.68-15.154 20.85-13.262 5.56-61.376 20.849-78.425 18.764 20.459.348 9.094 15.637-25.005 8.34 16.292 8.34 10.23 9.73 10.23 9.73s-28.792 1.39-36.37-4.518c19.323 6.602 11.366 9.035 11.366 9.035s-19.7 1.737-28.794-2.085c14.017 3.822 6.82 6.255 6.82 6.255s-11.365 1.737-20.837-1.39c-9.47-3.128-23.868-25.02-24.625-25.02zm22.482 112.837l2.06 33.982s-1.11 1.743-2.06 2.76c-.95 1.016-26.283-3.632-22.8 14.085 0 7.262.16 9.149 5.543 13.215-1.426-4.792-.95-8.131-.95-8.131s7.124 3.921 14.091-6.825c-4.75 10.6-1.426 14.376-.317 14.667 1.109 1.889-1.899 10.455 7.6 10.31-3.64-3.195-1.9-7.843-1.9-7.843s9.976-1.45 6.492-18.006c3.642-3.34 5.066-.145 5.066-.145s1.108 9.874 9.816 7.842c3.96 2.032-.632 7.405-.632 7.405s6.332.146 8.232-4.792c1.9-4.937 4.117-13.796-6.334-17.426-1.266-3.484 4.118-3.775 4.118-3.775s6.65 2.032 8.549 5.082c1.9 3.05 1.267-7.986-6.966-9.149-10.133-.291-10.766-2.178-10.766-2.613 0-.437-1.741-24.687-2.533-31.658z"/><path d="M1782.069 331.675c.124-1.558-17.286-23.059-12.869-25.838 4.415.833 11.656 10.613 17.522 7.438-1.778-3.811-7.018-1.665-12.97-11.423-5.948-11.032-6.817-27.593-27.654-45.658 13.49 19.116 44.092 30.322 45.388 24.748 1.296-5.575-26.946-26.653-25.5-31.733 5.617 10.433 33.975 33.678 54.868 31.753 1.432-4.475-17.11-13.508-21.881-21.942-13.347-8.224-49.065-36.462-49.78-43.011-12.998-17.387-21.111-22.647-24.89-24.65-1.46-1.577-1.826-3.085-2.112-4.044-8.068-17.446 2.619-23.11 8.874-23.949 5.147-.524 6.642.182 10.346-1.463-4.386-1.574-8.77-3.046-13.156-4.62 5.719 3.848 20.325.46 17.16 11.542 6.403-2.235 20.03-17.104-15.444-20.46-11.545-12.147-59.009-19.128-70.89 33.888.95.743 1.446 1.354 4.465 3.422-14.989-6.663-55.421-11.802-69.992-13.961-39.364-10.417-80.244-35.52-84.174-32.433-5.256 2.14 23.784 26.92 22.274 27.468-25.18-13.466-48.182-23.006-69.585-31.687-15.058-5.163-30.14-17.182-31.802-14.896-5.542 10.53 24.14 36.996 29.662 40.11 5.523 2.978 48.947 21.453 48.307 21.684-65.406-27.229-76.372-32.165-79.654-35.305-5.764-1.19-19.807-18.581-23.72-17.463-2.143 1.93 2.154 29.41 33.364 41.744 5.087 3.4 66.9 23.739 66.295 25.333-.15.399-70.798-26.743-73.542-27.714-13.621-4.899-30.334-22.07-33.459-20.14-2.982 1.753 7.705 20.339 21.468 26.168 7.215 2.92 34.887 15.492 59.819 23.493 1.591.527-44.815-16.141-67.126-24.693-10.116-5.15-14.88-11.568-16.42-10.187-2.28 1.38 3.682 28.837 75.38 44.33 1.888.737 25.237-5.074 24.083-4.303-.289.193-23.186 4.765-25.415 4.608-1.984-.278-14.528 1.362-14.755 1.959-.758 1.857 4.545 11.688 41.564 9.638 4.733-.261 30.416-8.579 28.258-6.79-1.08.896-34.973 10.997-37.554 11.196-2.242.291-14.15 1.433-14.59 2.595-.537 1.584 8.814 8.58 28.694 9.702 17.602.857 51.05-9.865 50.378-9.17-.67.695-32.244 10.618-33.07 11.223-1.142.593-12.704 1.168-13.11 1.982-.942 2.026 16.678 17.138 68.787 1.01-5.235 6.486-30.493 10.921-30.457 12.09-.117.847 5.565 5.882 14.396 7.684 4.415.9 10.46.717 15.982-.083 9.918-1.821 20.37-5.42 33.65-16.678 1.587 3.533-33.174 19.668-31.542 21.207 7.537 6.41 32.576-.827 34.216-1.667 1.641-.842 48.215-24.93 48.055-27.718.723 3.573-60.046 33.859-59.39 35.101 3.9 5.71 24.66-.3 25.652-.825.99-.523 26.493-13.16 27.192-13.532.697-.373-29.973 16.464-27.24 19.027-1.321 10.933 47.898-7.546 51.755-9.847 1.929-1.15-23.644 10.313-23.712 15.759 8.235 12.77 34.603 8.719 38.67 5.91 2.035-1.405-2.393 9.486-.967 8.497.497-.205 5.735-5.886 7.75-9.998-.643 3.568-3.534 9.189-5.22 15.638-1.69 6.449-2.173 13.726-4.49 21.458-.532 3.396 16.247-6.64 13.81-30.631 1.436 12.479-5.299 35.813-3.536 37.026 3.525 2.426 13.27-11.621 14.255-21.12 2.894 4.798 8.968 14.813 14.193 17.117-.569-7.258.1-6.925-2.252-14.059 1.357-9.47 1.546-22.578 1.874-37.38 14.199 24.948 19.862 35.483 15.895 54.588 4.222 1.615 10.966-13.335 10.422-21.03 5.422 21.381 28.825 24.587 29.197 23.965z"/><path d="M1545.575 173.288s-9.664 6.697-21.69 6.303c3.006 11.03 27.918 2.56 27.918 2.56s-12.027 12.213-20.617 14.183c5.154 3.94 26.845 2.56 30.497.591 3.65-1.97 10.093-9.652 10.093-9.652s-22.335 23.637-25.557 23.44c-.43 2.758 23.41 1.773 28.35-2.363 4.938-4.137 17.394-10.243 17.394-10.243s-32.643 20.88-34.147 20.88c12.241 2.954 36.724-3.546 52.402-12.41-23.195 14.182-25.34 16.743-37.153 21.47 10.524 2.167 15.89 8.668 51.542-5.515 20.403-8.864 31.998-25.016 31.998-25.016-12.67 15.561-32.644 28.76-54.762 41.76-1.29 2.363 23.622 12.014 55.406-18.32m60.992 18.122s2.148 9.258 10.738 16.35c8.592 7.09 9.236 13.984 9.236 13.984m-24.268-90.609s3.006 8.273 11.811 13.592c9.02 5.318 22.552 22.06 23.625 25.016 1.04 3.576 6.227 29.35 5.798 32.106"/><path d="M1659.184 191.606c.644 3.152-12.672 19.107 5.582 37.82-16.537 18.515-16.535 20.88-16.535 20.88s9.234 4.727 25.77-8.274c27.274 30.73 18.186 44.792 18.186 44.792"/><path d="M1690.014 265.13s-2.512-3.3 1.967-15.626c4.033 4.456 8.518 5.407 10.484 7.211 1.965 1.804 22.558 4.538 23.867 17.16m-12.109-124.443c0-.927-4.147-9.088-19.616 1.113 8.29.464 16.48 4.822 19.616-1.113zm147.646 37.319c.757.348 46.22 9.382 61.375 4.865-19.322 23.63-57.965 7.645-57.965 7.645 18.942 5.212 19.701 4.865 25.761 9.73 1.895 4.517-34.854 2.432-46.978-3.823 33.719 9.73 34.476 9.035 35.614 12.857 1.517 5.212-55.314-1.39-60.239-8.34 15.155 10.772 23.49 12.857 31.824 17.722-10.23 4.17-29.171 8.339-64.027-14.247 45.84 38.224 87.137 35.79 93.579 42.74-15.912 21.545-77.667-12.856-106.082-30.23-28.414-17.375 62.133 42.046 70.47 41.003-4.17 5.907-34.098.695-35.993-2.085m64.405-37.876c-5.302.695-21.214.695-23.487.348m-317.866-60.076s34.576 16.743 49.18 15.562c-3.866 3.348-9.666 4.727-9.666 4.727 3.652 1.379 13.746 6.303 28.995 3.152-3.652 3.348-8.377 7.091-8.377 7.091s13.101 4.53 27.92-2.56c-4.51 5.12-7.089 8.863-7.089 8.863l10.31.591"/></g></svg>
